packages/foundations/assets/icons/functional/images/layout/list_14.svg

<svg width="14" height="14" viewBox="0 0 14 14" fill="none" xmlns="http://www.w3.org/2000/svg">
<g clip-path="url(#clip0_185_1368)">
<path fill-rule="evenodd" clip-rule="evenodd" d="M6.30979 11.2H11.2131C11.5794 11.2 11.9 10.8787 11.9 10.4885C11.9 10.1213 11.5794 9.8 11.2131 9.8H6.30979C5.92052 9.8 5.59998 10.1213 5.59998 10.4885C5.59998 10.8787 5.92052 11.2 6.30979 11.2ZM2.81537 11.2H3.50767C3.87691 11.2 4.19998 10.8787 4.19998 10.4885C4.19998 10.1213 3.87691 9.8 3.50767 9.8H2.81537C2.42304 9.8 2.09998 10.1213 2.09998 10.4885C2.09998 10.8787 2.42304 11.2 2.81537 11.2ZM6.30979 7.7H11.2131C11.5794 7.7 11.9 7.38389 11.9 7C11.9 6.61612 11.5794 6.3 11.2131 6.3H6.30979C5.92052 6.3 5.59998 6.61612 5.59998 7C5.59998 7.38389 5.92052 7.7 6.30979 7.7ZM2.81537 7.7H3.50767C3.87691 7.7 4.19998 7.38389 4.19998 7C4.19998 6.61612 3.87691 6.3 3.50767 6.3H2.81537C2.42304 6.3 2.09998 6.61612 2.09998 7C2.09998 7.38389 2.42304 7.7 2.81537 7.7ZM6.30979 4.2H11.2131C11.5794 4.2 11.9 3.8787 11.9 3.48852C11.9 3.1213 11.5794 2.8 11.2131 2.8H6.30979C5.92052 2.8 5.59998 3.1213 5.59998 3.48852C5.59998 3.8787 5.92052 4.2 6.30979 4.2ZM2.81537 4.2H3.50767C3.87691 4.2 4.19998 3.8787 4.19998 3.48852C4.19998 3.1213 3.87691 2.8 3.50767 2.8H2.81537C2.42304 2.8 2.09998 3.1213 2.09998 3.48852C2.09998 3.8787 2.42304 4.2 2.81537 4.2Z" fill="#1A1C1F"/>
</g>
<defs>
<clipPath id="clip0_185_1368">
<rect width="14" height="14" fill="white"/>
</clipPath>
</defs>
</svg>

<svg xmlns="http://www.w3.org/2000/svg" width="14" height="14" fill="none"><g clip-path="url(#a)"><path fill="#1A1C1F" fill-rule="evenodd" d="M6.31 11.2h4.903c.366 0 .687-.321.687-.711a.705.705 0 0 0-.687-.689H6.31a.71.71 0 0 0-.71.688c0 .39.32.712.71.712m-3.495 0h.693c.369 0 .692-.321.692-.711a.71.71 0 0 0-.692-.689h-.693c-.392 0-.715.321-.715.688 0 .39.323.712.715.712M6.31 7.7h4.903A.704.704 0 0 0 11.9 7c0-.384-.32-.7-.687-.7H6.31c-.39 0-.71.316-.71.7s.32.7.71.7m-3.495 0h.693c.369 0 .692-.316.692-.7s-.323-.7-.692-.7h-.693A.71.71 0 0 0 2.1 7c0 .384.323.7.715.7M6.31 4.2h4.903c.366 0 .687-.321.687-.711a.705.705 0 0 0-.687-.689H6.31a.71.71 0 0 0-.71.689c0 .39.32.711.71.711m-3.495 0h.693c.369 0 .692-.321.692-.711a.71.71 0 0 0-.692-.689h-.693c-.392 0-.715.321-.715.689 0 .39.323.711.715.711" clip-rule="evenodd"/></g><defs><clipPath id="a"><path fill="#fff" d="M0 0h14v14H0z"/></clipPath></defs></svg>
